X:1
T:Title
%%score { ( 1 3 ) | 2 }
L:1/8
Q:1/4=100
M:2/4
K:A
V:1 treble nm="Grand Piano"
V:3 treble 
V:2 bass 
V:1
 [Ec][DB] [CA][DF] | [CE]2 [CA]2 | BB AB | c4 | [Ec][DB] [CA][DF] | [CE]2 [CEA]2 | %6
w: W.~B.~Bradbury * * *||||||
 [DFB][DFB] [CEA][B,DG] | [A,CA]4 | BB cc | d2 B2 | cc BA | B4[K:bass] | [Ec][CB] [DA][DF] | %13
w: |||||||
 [CE]2 [CA]2 | BB AG | [CA]4 |] %16
w: |||
V:2
 [A,,A,][A,,A,] [A,,A,][A,,A,] | [A,,A,]2 [A,,A,]2 | [E,G,E][E,G,E] [E,F,E][E,G,E] | [A,E]4 | %4
 [A,,A,][A,,A,] [A,,A,][A,,A,] | [A,,A,]2 A,,2 | D,D, E,E, | A,,4 | [E,G,E][E,G,E] [E,A,E][E,A,E] | %9
 [E,B,E]2 [E,G,E]2 | [A,E][A,E] [G,B,D][F,B,^D] | [E,G,E]4 | [A,,A,][A,,E,] [A,,F,][A,,A,] | %13
 [A,,A,]2 [A,,E,]2 | [D,F,D][D,F,D] [E,C][E,B,] | [A,,E,]4 |] %16
V:3
 x4 | x4 | x4 | x4 | x4 | x4 | x4 | x4 | x4 | x4 | x4 | z[K:bass] D, C,B,, | x4 | x4 | x4 | x4 |] %16

